**harm	**harte	**timestamp	**phrase	**leadinstrument	**kern
*M4/4	*M4/4	*	*	*	*
*D:	*D:	*	*	*	*D:
1r;	N	0	.	r	1r;
=1	=1	=1	=1	=1	=1
*>A_intro	*>A_intro	*>A_intro	*>A_intro	*>A_intro	*>A_intro
1I	D:maj	0.232	newline	guitar	1D 1f# 1a
=2	=2	=2	=2	=2	=2
1I	D:maj	1.799	.	guitar	1D 1f# 1a
=3	=3	=3	=3	=3	=3
1IV	G:maj	3.366	.	guitar	1G 1b 1dd
=4	=4	=4	=4	=4	=4
1IV	G:maj	4.933	.	guitar	1G 1b 1dd
=5	=5	=5	=5	=5	=5
1I	D:maj	6.5	newline	guitar	1D 1f# 1a
=6	=6	=6	=6	=6	=6
1I	D:maj	8.01	.	guitar	1D 1f# 1a
=7	=7	=7	=7	=7	=7
1V	A:maj	9.519	.	guitar	1A 1cc# 1ee
=8	=8	=8	=8	=8	=8
1V	A:maj	11.029	.	guitar	1A 1cc# 1ee
=9	=9	=9	=9	=9	=9
*>A_verse	*>A_verse	*>A_verse	*>A_verse	*>A_verse	*>A_verse
1I	D:maj	12.539	newline	voice	1D 1f# 1a
=10	=10	=10	=10	=10	=10
1I	D:maj	14.065	.	voice	1D 1f# 1a
=11	=11	=11	=11	=11	=11
1IV	G:maj	15.592	.	voice	1G 1b 1dd
=12	=12	=12	=12	=12	=12
1IV	G:maj	17.118	.	voice	1G 1b 1dd
=13	=13	=13	=13	=13	=13
1I	D:maj	18.645	newline	voice	1D 1f# 1a
=14	=14	=14	=14	=14	=14
1I	D:maj	20.187	.	voice	1D 1f# 1a
=15	=15	=15	=15	=15	=15
1V	A:maj	21.73	.	voice	1A 1cc# 1ee
=16	=16	=16	=16	=16	=16
1V	A:maj	23.272	.	voice	1A 1cc# 1ee
=17	=17	=17	=17	=17	=17
1I	D:maj	24.815	newline	voice	1D 1f# 1a
=18	=18	=18	=18	=18	=18
1I	D:maj	26.337	.	voice	1D 1f# 1a
=19	=19	=19	=19	=19	=19
1IV	G:maj	27.858	.	voice	1G 1b 1dd
=20	=20	=20	=20	=20	=20
1IV	G:maj	29.38	.	voice	1G 1b 1dd
=21	=21	=21	=21	=21	=21
1I	D:maj	30.902	newline	voice	1D 1f# 1a
=22	=22	=22	=22	=22	=22
1I	D:maj	32.469	.	voice	1D 1f# 1a
=23	=23	=23	=23	=23	=23
1V	A:maj	34.036	.	voice	1A 1cc# 1ee
=24	=24	=24	=24	=24	=24
1V	A:maj	35.604	.	voice	1A 1cc# 1ee
=25	=25	=25	=25	=25	=25
*>B_chorus	*>B_chorus	*>B_chorus	*>B_chorus	*>B_chorus	*>B_chorus
1I	D:maj	37.171	newline	voice	1D 1f# 1a
=26	=26	=26	=26	=26	=26
1I	D:maj	38.706	.	voice	1D 1f# 1a
=27	=27	=27	=27	=27	=27
1IV	G:maj	40.241	.	voice	1G 1b 1dd
=28	=28	=28	=28	=28	=28
1IV	G:maj	41.775	.	voice	1G 1b 1dd
=29	=29	=29	=29	=29	=29
1I	D:maj	43.31	newline	voice	1D 1f# 1a
=30	=30	=30	=30	=30	=30
1I	D:maj	44.848	.	voice	1D 1f# 1a
=31	=31	=31	=31	=31	=31
1V	A:maj	46.385	.	voice	1A 1cc# 1ee
=32	=32	=32	=32	=32	=32
1V	A:maj	47.923	.	voice	1A 1cc# 1ee
=33	=33	=33	=33	=33	=33
1I	D:maj	49.46	newline	voice	1D 1f# 1a
=34	=34	=34	=34	=34	=34
1I	D:maj	50.999	.	voice	1D 1f# 1a
=35	=35	=35	=35	=35	=35
1IV	G:maj	52.538	.	voice	1G 1b 1dd
=36	=36	=36	=36	=36	=36
1IV	G:maj	54.077	.	voice	1G 1b 1dd
=37	=37	=37	=37	=37	=37
1I	D:maj	55.616	newline	voice	1D 1f# 1a
=38	=38	=38	=38	=38	=38
1I	D:maj	57.169	.	voice	1D 1f# 1a
=39	=39	=39	=39	=39	=39
1V	A:maj	58.722	.	voice	1A 1cc# 1ee
=40	=40	=40	=40	=40	=40
1V	A:maj	60.275	.	voice	1A 1cc# 1ee
=41	=41	=41	=41	=41	=41
1I	D:maj	61.828	newline	voice	1D 1f# 1a
=42	=42	=42	=42	=42	=42
1I	D:maj	63.369	.	voice	1D 1f# 1a
=43	=43	=43	=43	=43	=43
1IV	G:maj	64.911	.	voice	1G 1b 1dd
=44	=44	=44	=44	=44	=44
1IV	G:maj	66.453	.	voice	1G 1b 1dd
=45	=45	=45	=45	=45	=45
1I	D:maj	67.995	newline	voice	1D 1f# 1a
=46	=46	=46	=46	=46	=46
1I	D:maj	69.549	.	voice	1D 1f# 1a
=47	=47	=47	=47	=47	=47
1vi	B:min	71.102	.	voice	1B 1dd 1ff#
=48	=48	=48	=48	=48	=48
1vi	B:min	72.655	.	voice	1B 1dd 1ff#
=49	=49	=49	=49	=49	=49
1IV	G:maj	74.209	.	voice	1G 1b 1dd
=50	=50	=50	=50	=50	=50
1V	A:maj	75.762	.	voice	1A 1cc# 1ee
=51	=51	=51	=51	=51	=51
*>A_trans	*>A_trans	*>A_trans	*>A_trans	*>A_trans	*>A_trans
1I	D:maj	77.315	newline	guitar	1D 1f# 1a
=52	=52	=52	=52	=52	=52
1I	D:maj	78.849	.	guitar	1D 1f# 1a
=53	=53	=53	=53	=53	=53
1IV	G:maj	80.382	.	guitar	1G 1b 1dd
=54	=54	=54	=54	=54	=54
1IV	G:maj	81.915	.	guitar	1G 1b 1dd
=55	=55	=55	=55	=55	=55
1I	D:maj	83.449	newline	guitar	1D 1f# 1a
=56	=56	=56	=56	=56	=56
1I	D:maj	85.029	.	guitar	1D 1f# 1a
=57	=57	=57	=57	=57	=57
1V	A:maj	86.609	.	guitar	1A 1cc# 1ee
=58	=58	=58	=58	=58	=58
1V	A:maj	88.188	.	guitar	1A 1cc# 1ee
=59	=59	=59	=59	=59	=59
*>A_verse	*>A_verse	*>A_verse	*>A_verse	*>A_verse	*>A_verse
1I	D:maj	89.768	newline	voice	1D 1f# 1a
=60	=60	=60	=60	=60	=60
1I	D:maj	91.321	.	voice	1D 1f# 1a
=61	=61	=61	=61	=61	=61
1IV	G:maj	92.874	.	voice	1G 1b 1dd
=62	=62	=62	=62	=62	=62
1IV	G:maj	94.427	.	voice	1G 1b 1dd
=63	=63	=63	=63	=63	=63
1I	D:maj	95.98	newline	voice	1D 1f# 1a
=64	=64	=64	=64	=64	=64
1I	D:maj	97.533	.	voice	1D 1f# 1a
=65	=65	=65	=65	=65	=65
1V	A:maj	99.087	.	voice	1A 1cc# 1ee
=66	=66	=66	=66	=66	=66
1V	A:maj	100.641	.	voice	1A 1cc# 1ee
=67	=67	=67	=67	=67	=67
1I	D:maj	102.194	newline	voice	1D 1f# 1a
=68	=68	=68	=68	=68	=68
1I	D:maj	103.713	.	voice	1D 1f# 1a
=69	=69	=69	=69	=69	=69
1IV	G:maj	105.232	.	voice	1G 1b 1dd
=70	=70	=70	=70	=70	=70
1IV	G:maj	106.75	.	voice	1G 1b 1dd
=71	=71	=71	=71	=71	=71
1I	D:maj	108.269	newline	voice	1D 1f# 1a
=72	=72	=72	=72	=72	=72
1I	D:maj	109.792	.	voice	1D 1f# 1a
=73	=73	=73	=73	=73	=73
1V	A:maj	111.315	.	voice	1A 1cc# 1ee
=74	=74	=74	=74	=74	=74
1V	A:maj	112.838	.	voice	1A 1cc# 1ee
=75	=75	=75	=75	=75	=75
*>B_chorus	*>B_chorus	*>B_chorus	*>B_chorus	*>B_chorus	*>B_chorus
1I	D:maj	114.362	newline	voice	1D 1f# 1a
=76	=76	=76	=76	=76	=76
1I	D:maj	115.898	.	voice	1D 1f# 1a
=77	=77	=77	=77	=77	=77
1IV	G:maj	117.434	.	voice	1G 1b 1dd
=78	=78	=78	=78	=78	=78
1IV	G:maj	118.97	.	voice	1G 1b 1dd
=79	=79	=79	=79	=79	=79
1I	D:maj	120.506	newline	voice	1D 1f# 1a
=80	=80	=80	=80	=80	=80
1I	D:maj	122.066	.	voice	1D 1f# 1a
=81	=81	=81	=81	=81	=81
1V	A:maj	123.627	.	voice	1A 1cc# 1ee
=82	=82	=82	=82	=82	=82
1V	A:maj	125.187	.	voice	1A 1cc# 1ee
=83	=83	=83	=83	=83	=83
1I	D:maj	126.747	newline	voice	1D 1f# 1a
=84	=84	=84	=84	=84	=84
1I	D:maj	128.286	.	voice	1D 1f# 1a
=85	=85	=85	=85	=85	=85
1IV	G:maj	129.825	.	voice	1G 1b 1dd
=86	=86	=86	=86	=86	=86
1IV	G:maj	131.364	.	voice	1G 1b 1dd
=87	=87	=87	=87	=87	=87
1I	D:maj	132.903	newline	voice	1D 1f# 1a
=88	=88	=88	=88	=88	=88
1I	D:maj	134.458	.	voice	1D 1f# 1a
=89	=89	=89	=89	=89	=89
1V	A:maj	136.014	.	voice	1A 1cc# 1ee
=90	=90	=90	=90	=90	=90
1V	A:maj	137.57	.	voice	1A 1cc# 1ee
=91	=91	=91	=91	=91	=91
1I	D:maj	139.125	newline	voice	1D 1f# 1a
=92	=92	=92	=92	=92	=92
1I	D:maj	140.681	.	voice	1D 1f# 1a
=93	=93	=93	=93	=93	=93
1IV	G:maj	142.237	.	voice	1G 1b 1dd
=94	=94	=94	=94	=94	=94
1IV	G:maj	143.793	.	voice	1G 1b 1dd
=95	=95	=95	=95	=95	=95
1I	D:maj	145.349	newline	voice	1D 1f# 1a
=96	=96	=96	=96	=96	=96
1I	D:maj	146.925	.	voice	1D 1f# 1a
=97	=97	=97	=97	=97	=97
1vi	B:min	148.501	.	voice	1B 1dd 1ff#
=98	=98	=98	=98	=98	=98
1vi	B:min	150.077	.	voice	1B 1dd 1ff#
=99	=99	=99	=99	=99	=99
1IV	G:maj	151.653	.	voice	1G 1b 1dd
=100	=100	=100	=100	=100	=100
1V	A:maj	153.229	.	voice	1A 1cc# 1ee
=101	=101	=101	=101	=101	=101
*>A_solo	*>A_solo	*>A_solo	*>A_solo	*>A_solo	*>A_solo
1I	D:maj	154.805	newline	guitar	1D 1f# 1a
=102	=102	=102	=102	=102	=102
1I	D:maj	156.378	.	guitar	1D 1f# 1a
=103	=103	=103	=103	=103	=103
1IV	G:maj	157.951	.	guitar	1G 1b 1dd
=104	=104	=104	=104	=104	=104
1IV	G:maj	159.523	.	guitar	1G 1b 1dd
=105	=105	=105	=105	=105	=105
1I	D:maj	161.096	newline	guitar	1D 1f# 1a
=106	=106	=106	=106	=106	=106
1V	A:maj	162.674	.	guitar	1A 1cc# 1ee
=107	=107	=107	=107	=107	=107
1I	D:maj	164.251	.	guitar	1D 1f# 1a
=108	=108	=108	=108	=108	=108
1I	D:maj	165.829	.	guitar	1D 1f# 1a
1r;	N	170.76	.	r	1r;
1r;	N	174.341	.	r	1r;
*-	*-	*-	*-	*-	*-
!!!OTL: Teach Your Children
!!!COC: Crosby, Stills & Nash
!!!BillboardChartDate: 1970/08/15
!!!BillboardPeak: 16
!!!BillboardWeeksOnChart: 11
!!!SampleTargetRank: 35
!!!SampleActualRank: 33
!!!SampleID#: 0905
!!!RDF**harmony: **recip + pitch class of root + harmonic quality
!!!RDF**harte: Chris Harte's syntax, used by MIREX
!!!RDF**phrase: newline = linebreak in original McGill transcription
!!!RDF**timestamp: McGill audio timestamp in seconds
!!!RDF**leadinstrument: original McGill primary instrumentation annotation
!!!RDT: 2017/01/12/
!!!ENC: Nathaniel Condit-Schultz
!!!EST: Awating manual error checking and editing.
